assets/images/icons/phone-after-01.svg

<svg width="16" height="17" viewBox="0 0 16 17" fill="none" xmlns="http://www.w3.org/2000/svg">
<g id="fi_953780" clip-path="url(#clip0_306_12493)">
<g id="Group">
<g id="Group_2">
<path id="Vector" d="M15.3869 3.76711C14.773 2.92233 13.6978 2.15983 12.3595 1.62015C11.0284 1.0834 9.48293 0.786552 8.00765 0.784458C6.53224 0.780771 4.98484 1.07455 3.65184 1.60711C2.31121 2.14277 1.23353 2.90196 0.617339 3.74474C0.0255265 4.55418 -0.145036 5.42665 0.124058 6.26783C0.298651 6.81349 0.80787 7.18068 1.3915 7.18152L3.38996 7.1834C3.39065 7.1834 3.39131 7.1834 3.39196 7.1834C3.79046 7.18336 4.16487 7.00893 4.41931 6.70458C4.67106 6.40349 4.77531 6.00999 4.70543 5.62493C4.70337 5.61361 4.7009 5.6024 4.69806 5.59124L4.5929 5.18243C5.17521 4.90458 6.49459 4.36777 8.00149 4.3763C9.50731 4.38402 10.8258 4.92052 11.4088 5.19849L11.3019 5.60499C11.2989 5.61652 11.2963 5.62808 11.2942 5.63974C11.2232 6.02458 11.3264 6.41836 11.5772 6.72018C11.8312 7.0258 12.2059 7.20136 12.6054 7.20196L14.6039 7.20383C14.6046 7.20383 14.6052 7.20383 14.6059 7.20383C15.1884 7.2038 15.6978 6.83833 15.8737 6.2938C16.1453 5.45283 15.977 4.57915 15.3869 3.76711Z" fill="#7FB51F"/>
</g>
</g>
<g id="Group_3">
<g id="Group_4">
<path id="Vector_2" d="M12.5188 9.24399L11.0285 7.67914C10.9384 7.58452 10.8134 7.53099 10.6828 7.53099H9.71964V6.88027C9.71964 6.61661 9.50589 6.40283 9.2422 6.40283C8.97852 6.40283 8.76477 6.61658 8.76477 6.88027V7.53099H7.23595V6.88027C7.23595 6.61661 7.0222 6.40283 6.75852 6.40283C6.49483 6.40283 6.28108 6.61658 6.28108 6.88027V7.53099H5.31798C5.18733 7.53099 5.06236 7.58455 4.97227 7.67914L3.48195 9.24399C2.31345 10.4709 1.66992 12.0797 1.66992 13.7741V15.7382C1.66992 16.0019 1.88367 16.2156 2.14736 16.2156H13.8534C14.117 16.2156 14.3308 16.0019 14.3308 15.7382V13.7741C14.3308 12.0797 13.6873 10.471 12.5188 9.24399ZM8.00036 14.4705C6.62255 14.4705 5.50164 13.3495 5.50164 11.9717C5.50164 10.5939 6.62258 9.47299 8.00036 9.47299C9.37814 9.47299 10.4991 10.5939 10.4991 11.9717C10.4991 13.3495 9.37814 14.4705 8.00036 14.4705Z" fill="#7FB51F"/>
</g>
</g>
<g id="Group_5">
<g id="Group_6">
<path id="Vector_3" d="M8.00088 10.4277C7.14956 10.4277 6.45703 11.1203 6.45703 11.9716C6.45703 12.8229 7.14959 13.5155 8.00088 13.5155C8.85216 13.5155 9.54472 12.8229 9.54472 11.9716C9.54472 11.1203 8.85216 10.4277 8.00088 10.4277Z" fill="#7FB51F"/>
</g>
</g>
</g>
<defs>
<clipPath id="clip0_306_12493">
<rect width="16" height="16" fill="white" transform="translate(0 0.5)"/>
</clipPath>
</defs>
</svg>

<svg xmlns="http://www.w3.org/2000/svg" width="16" height="17" fill="none"><g fill="#7FB51F" clip-path="url(#a)"><path d="M15.387 3.767c-.614-.845-1.69-1.607-3.027-2.147A12 12 0 0 0 8.008.784a11.9 11.9 0 0 0-4.356.823c-1.34.536-2.418 1.295-3.035 2.138-.591.81-.762 1.682-.493 2.523.175.545.684.913 1.268.914l1.998.001h.002c.398 0 .773-.174 1.027-.478A1.31 1.31 0 0 0 4.7 5.59l-.106-.409c.582-.277 1.902-.814 3.408-.806s2.825.545 3.408.822l-.107.407-.008.035c-.07.385.032.778.283 1.08.254.306.629.481 1.028.482l1.999.002h.002c.582 0 1.092-.366 1.268-.91.271-.841.103-1.715-.487-2.527"/><path d="m12.519 9.244-1.49-1.565a.48.48 0 0 0-.346-.148H9.72v-.65a.477.477 0 0 0-.955 0v.65h-1.53v-.65a.477.477 0 0 0-.954 0v.65h-.963a.48.48 0 0 0-.346.148l-1.49 1.565a6.54 6.54 0 0 0-1.812 4.53v1.964c0 .264.214.478.477.478h11.706a.477.477 0 0 0 .478-.478v-1.964a6.54 6.54 0 0 0-1.812-4.53M8 14.471a2.5 2.5 0 0 1-2.498-2.5A2.5 2.5 0 0 1 8 9.474a2.5 2.5 0 0 1 2.5 2.499A2.5 2.5 0 0 1 8 14.47"/><path d="M8 10.428c-.85 0-1.543.692-1.543 1.544 0 .85.693 1.543 1.544 1.543s1.544-.692 1.544-1.543c0-.852-.693-1.544-1.544-1.544"/></g><defs><clipPath id="a"><path fill="#fff" d="M0 .5h16v16H0z"/></clipPath></defs></svg>
